X:1
T: Crarae
C:
R:Reel
Q: 232
K:D
M:4/4
L:1/8
|:FA AB d2 de|fd gf ed Bd|FA AB de fb|af ef d1/2d1/2d d2|
FA AB d2 de|fd gf ed Bd|FA AB de fb|af ef d1/2d1/2d d2|
af ef d2 BA|Bd Ad Bd Ab|af ef de fd|Bd AF E2 ea|
af ef d2 BA|Bd Ad Bd Ab|af ef de fb|af ef d1/2d1/2d d2:|
